images/Exercism_files/run-tests-prompt-9fbfa6a34cb1bc83e8d282af23b70d391706ffa6.svg

<svg fill="none" height="48" viewBox="0 0 49 48" width="49" xmlns="http://www.w3.org/2000/svg"><g stroke="#5c5589" stroke-linecap="round" stroke-linejoin="round" stroke-width="2.5"><path clip-rule="evenodd" d="m35 36.022c1.6569 0 3-1.3431 3-3s-1.3431-3-3-3-3 1.3431-3 3 1.3431 3 3 3z" fill-rule="evenodd"/><path clip-rule="evenodd" d="m37.5481 21.416.884 2.906c.3027 1.0008 1.329 1.5961 2.348 1.362l2.944-.682c1.1454-.2581 2.3254.2599 2.9105 1.2778.5852 1.018.439 2.2983-.3605 3.1582l-2.062 2.222c-.7139.7677-.7139 1.9563 0 2.724l2.062 2.216c.7995.8599.9457 2.1402.3605 3.1582-.5851 1.0179-1.7651 1.5359-2.9105 1.2778l-2.944-.676c-1.019-.2341-2.0453.3612-2.348 1.362l-.884 2.906c-.3373 1.1254-1.3731 1.8963-2.548 1.8963s-2.2106-.7709-2.548-1.8963l-.884-2.906c-.3027-1.0008-1.3289-1.5961-2.348-1.362l-2.944.682c-1.1479.262-2.3322-.2565-2.9184-1.2776-.5861-1.0211-.4367-2.3053.3684-3.1644l2.062-2.222c.7139-.7677.7139-1.9563 0-2.724l-2.062-2.222c-.7958-.8603-.9397-2.1382-.3553-3.154.5845-1.0158 1.7616-1.5336 2.9053-1.278l2.944.682c1.0191.2341 2.0453-.3612 2.348-1.362l.884-2.906c.3378-1.1253 1.3738-1.8957 2.5488-1.8953 1.1749.0005 2.2103.7717 2.5472 1.8973z" fill-rule="evenodd"/><path d="m11 21.022h9"/><path d="m11 28.522h4.5"/><path d="m11 36.022h4.5"/><path d="m20 46.522h-15c-1.65685 0-3-1.3431-3-3v-31.5c0-1.6569 1.34315-3 3-3h7.5c0-4.14213 3.3579-7.5 7.5-7.5s7.5 3.35787 7.5 7.5h7.5c1.6569 0 3 1.3431 3 3v1.5"/><path d="m20 7.522c.4142 0 .75.33579.75.75 0 .41422-.3358.75-.75.75s-.75-.33578-.75-.75c0-.41421.3358-.75.75-.75"/></g></svg>

<svg width="49" height="48" viewBox="0 0 49 48" fill="none" xmlns="http://www.w3.org/2000/svg">
<path fill-rule="evenodd" clip-rule="evenodd" d="M35 36.022C36.6569 36.022 38 34.6789 38 33.022C38 31.3651 36.6569 30.022 35 30.022C33.3431 30.022 32 31.3651 32 33.022C32 34.6789 33.3431 36.022 35 36.022Z" stroke="#5C5589" stroke-width="2.5" stroke-linecap="round" stroke-linejoin="round"/>
<path fill-rule="evenodd" clip-rule="evenodd" d="M37.5481 21.416L38.4321 24.322C38.7348 25.3228 39.7611 25.9181 40.7801 25.684L43.7241 25.002C44.8695 24.7439 46.0495 25.2619 46.6346 26.2798C47.2198 27.2978 47.0736 28.5781 46.2741 29.438L44.2121 31.66C43.4982 32.4277 43.4982 33.6163 44.2121 34.384L46.2741 36.6C47.0736 37.4599 47.2198 38.7402 46.6346 39.7582C46.0495 40.7761 44.8695 41.2941 43.7241 41.036L40.7801 40.36C39.7611 40.1259 38.7348 40.7212 38.4321 41.722L37.5481 44.628C37.2108 45.7534 36.175 46.5243 35.0001 46.5243C33.8252 46.5243 32.7895 45.7534 32.4521 44.628L31.5681 41.722C31.2654 40.7212 30.2392 40.1259 29.2201 40.36L26.2761 41.042C25.1282 41.304 23.9439 40.7855 23.3577 39.7644C22.7716 38.7433 22.921 37.4591 23.7261 36.6L25.7881 34.378C26.502 33.6103 26.502 32.4217 25.7881 31.654L23.7261 29.432C22.9303 28.5717 22.7864 27.2938 23.3708 26.278C23.9553 25.2622 25.1324 24.7444 26.2761 25L29.2201 25.682C30.2392 25.9161 31.2654 25.3208 31.5681 24.32L32.4521 21.414C32.7899 20.2887 33.8259 19.5183 35.0009 19.5187C36.1758 19.5192 37.2112 20.2904 37.5481 21.416Z" stroke="#5C5589" stroke-width="2.5" stroke-linecap="round" stroke-linejoin="round"/>
<path d="M11 21.022H20" stroke="#5C5589" stroke-width="2.5" stroke-linecap="round" stroke-linejoin="round"/>
<path d="M11 28.522H15.5" stroke="#5C5589" stroke-width="2.5" stroke-linecap="round" stroke-linejoin="round"/>
<path d="M11 36.022H15.5" stroke="#5C5589" stroke-width="2.5" stroke-linecap="round" stroke-linejoin="round"/>
<path d="M20 46.522H5C3.34315 46.522 2 45.1789 2 43.522V12.022C2 10.3651 3.34315 9.022 5 9.022H12.5C12.5 4.87987 15.8579 1.522 20 1.522C24.1421 1.522 27.5 4.87987 27.5 9.022H35C36.6569 9.022 38 10.3651 38 12.022V13.522" stroke="#5C5589" stroke-width="2.5" stroke-linecap="round" stroke-linejoin="round"/>
<path d="M20 7.522C20.4142 7.522 20.75 7.85779 20.75 8.272C20.75 8.68622 20.4142 9.022 20 9.022C19.5858 9.022 19.25 8.68622 19.25 8.272C19.25 7.85779 19.5858 7.522 20 7.522" stroke="#5C5589" stroke-width="2.5" stroke-linecap="round" stroke-linejoin="round"/>
</svg>
